X:52
T:Sliabh Luachra Polka Set - tune 2
D:"Barking Mad" (Four Men and a Dog 1991)
F:file ID mvbt2/052_slp2
Q:140
R:polka
M:2/4
L:1/8
K:D
K:G
d2 B2|AD G2|AD GA|BA A2|
d2 B2|AD G2|AD GA|BG G2 :|
Bd g2|fe e2|Bd ef|ed d2|
Bd g2|fe e2|Bd ef|g2 g2 :|

